X: 1
T: Ciribiribin   [F]
C: music: Alberto Pestalozza (1898)
M: 3/4
L: 1/8
K: F
c2 A2 ||\
"F"G4 F2 | E4 F2 | DE C4- | C2 F2 G2 | "F"A4 c2 | d4 f2 | "C7"e6 | z2 e2 g2 || "C7"d4 f2 | e4 d2 |
ed G4 | z2 G2 A2 | "C7"B4 c2 | d4 e2 | "F"c6 | z2 c2 A2 || "F"G4 F2 | E4 F2 | DE C4- | C2 c2 d2 |
"D7"_e4 d2 | _e4 d2 | "Gm"d6 | z2 G2 A2 || "C7"B4 A2 | G4 d2 | "F"cA F4 | z2 F2 "(Bbm)"G2 | "F"A2 c2 A2 | "C7"G4 c2 |
"F"F4 z2 | A2 A3 A || "Dm"d6 | A2 A3 A | "A7"e6 | A2 A3 A | "A7"A6 | E2 F3 G | "Dm"A6- | A2 z2 A2 ||
"Am"A6- | A2 z2 c2 | "C7"c6 | z2 c=B_BA | c2 c=B_BA | "F"c2 c=B_BA | "C7"c6 | z2 |: "C7"c=B_BA || "F"c4 A2 | G4 F2 |
C2 z2 F2 | G4 F2 | "F"C4 A2 | G4 F2 | "Gm"B6 | z2 d_dcB || "C7"e4 d2 | B4 A2 | G2 z2 G2 | A4 G2 |
"C7"d4 f2 | e4 d2 | "F"d6 | c2 c=B_BA || "F"c4 A2 | G4 F2 | C2 z2 F2 | G4 F2 | "F"C4 A2 | "(F+)"G4 F2 |
"Bb"d6 | z2 ed^cd || "Bb"f6 | z2 ed^cd | "F"f6 | z2 AG^FG | "Gm"B4 E2 | "C7"A4 G2 | F6 | z2 :|

%%sep 1 1 500
%%sep 1 1 500
